public/images/email.svg

<svg xmlns="http://www.w3.org/2000/svg" width="128" height="128" viewBox="476 476 128 128" xmlns:v="https://vecta.io/nano"><g transform="translate(540 540)"><path vector-effect="non-scaling-stroke" d="M-540-540H540V540H-540z" fill="#fff" visibility="hidden"/><circle vector-effect="non-scaling-stroke" cx="0" cy="0" r="64" fill="#2c7af0"/></g><path vector-effect="non-scaling-stroke" d="M64 72.4l38.2-32.7c-.6-.4-1.4-.7-2.2-.7H28c-.8 0-1.6.3-2.2.7L64 72.4zm2.6 3c-1.5 1.3-3.7 1.3-5.2 0L24 43.5V85c0 2.2 1.8 4 4 4h72c2.2 0 4-1.8 4-4V43.4l-37.4 32z" fill="#fff" transform="translate(476 476)"/></svg>

<?xml version="1.0" encoding="UTF-8" standalone="no"?>
<!DOCTYPE svg PUBLIC "-//W3C//DTD SVG 1.1//EN" "http://www.w3.org/Graphics/SVG/1.1/DTD/svg11.dtd">
<svg xmlns="http://www.w3.org/2000/svg" xmlns:xlink="http://www.w3.org/1999/xlink" version="1.1" width="128" height="128" viewBox="476 476 128 128" xml:space="preserve">
<desc>Created with Fabric.js 5.2.4</desc>
<defs>
</defs>
<g transform="matrix(1 0 0 1 540 540)" id="fa773963-b6aa-4e4d-8934-418ac88503ee"  >
</g>
<g transform="matrix(1 0 0 1 540 540)" id="fcb9cd16-a460-43ad-92a2-a584373ef5c7"  >
<rect style="stroke: none; stroke-width: 1; stroke-dasharray: none; stroke-linecap: butt; stroke-dashoffset: 0; stroke-linejoin: miter; stroke-miterlimit: 4; fill: rgb(255,255,255); fill-rule: nonzero; opacity: 1; visibility: hidden;" vector-effect="non-scaling-stroke"  x="-540" y="-540" rx="0" ry="0" width="1080" height="1080" />
</g>
<g transform="matrix(1 0 0 1 540 540)"  >
<circle style="stroke: none; stroke-width: 1; stroke-dasharray: none; stroke-linecap: butt; stroke-dashoffset: 0; stroke-linejoin: miter; stroke-miterlimit: 4; fill: rgb(44,122,240); fill-rule: nonzero; opacity: 1;" vector-effect="non-scaling-stroke"  cx="0" cy="0" r="64" />
</g>
<g transform="matrix(1 0 0 1 540 504)"  >
<path style="stroke: none; stroke-width: 1; stroke-dasharray: none; stroke-linecap: butt; stroke-dashoffset: 0; stroke-linejoin: miter; stroke-miterlimit: 4; fill: rgb(255,255,255); fill-rule: nonzero; opacity: 1;" vector-effect="non-scaling-stroke"  transform=" translate(-64, -28)" d="M 64 28" stroke-linecap="round" />
</g>
<g transform="matrix(1 0 0 1 540 531.7)"  >
<path style="stroke: none; stroke-width: 1; stroke-dasharray: none; stroke-linecap: butt; stroke-dashoffset: 0; stroke-linejoin: miter; stroke-miterlimit: 4; fill: rgb(255,255,255); fill-rule: nonzero; opacity: 1;" vector-effect="non-scaling-stroke"  transform=" translate(-64, -55.7)" d="M 64 72.4 L 102.2 39.7 C 101.60000000000001 39.300000000000004 100.8 39 100 39 L 28 39 C 27.2 39 26.4 39.3 25.8 39.7 L 64 72.4 z" stroke-linecap="round" />
</g>
<g transform="matrix(1 0 0 1 540 542.2)"  >
<path style="stroke: none; stroke-width: 1; stroke-dasharray: none; stroke-linecap: butt; stroke-dashoffset: 0; stroke-linejoin: miter; stroke-miterlimit: 4; fill: rgb(255,255,255); fill-rule: nonzero; opacity: 1;" vector-effect="non-scaling-stroke"  transform=" translate(-64, -66.2)" d="M 66.6 75.4 C 65.1 76.7 62.89999999999999 76.7 61.39999999999999 75.4 L 24 43.5 L 24 85 C 24 87.2 25.8 89 28 89 L 100 89 C 102.2 89 104 87.2 104 85 L 104 43.4 L 66.6 75.4 z" stroke-linecap="round" />
</g>
<g transform="matrix(NaN NaN NaN NaN 0 0)"  >
<g style=""   >
</g>
</g>
<g transform="matrix(NaN NaN NaN NaN 0 0)"  >
<g style=""   >
</g>
</g>
</svg>
